X: 38296
T: St. Patrick's An Dro
R: polka
M: 2/4
K: Eminor
EFGF E2 B2|G2 E2 F3 B|A>BAG F2 EF|G2 EG F3 B|
E>FGF E2 B2|G2 E2 F2 B2|ABAF G2 EF|G2 F2 E3:|
E2 GA B3 B|A2 d2 B2 G2|E2 GB A3 G|A>BAG F3 D|
E>FGA B2 cB|AF d>c B3 G|E2 GB A3 F|G2 F/E/F E3:|

